X: 34613
T: Road North, The
R: waltz
M: 3/4
K: Amixolydian
M:6/8
|:e>AA e2 f|g>fg e>dB|e>AA e2 f|g>ed B2 A|
e>AA e2 f|g>fg e>dB|A2 a e<ge/<d/|B2 A B>AG:|
|:c>AA e>de|B2 A B>AG|c>AA e>AA|g2 e a>ge|
c>AA e>de|B2 A B>AG|c2 A/<c/ e2 c/<e/|g2 e/<g/ a>ge:|
|:e>aa a2 g|e>de f>ed|e>aa a2 g|e>de f2 e|
e>aa a2 g|e>de f>ed|e<gg e<ge|d>BG B2 A:|

